X: 3
T: The Fairy Dance
R: reel
M: 4/4
L: 1/8
K: Dmaj
F>G|A2A>A (A/c/d/e/) (f/c/d/B/)|A2F>F F2d>c|\(Acde) fcdB|A2F>F F2d>c|Bged cbac|d2d>d d2:|!|:f>g|a2a>f b2b>a|g/f/g/a/ ge a2ag|\D>E|F2F>F (F/A/F/A/) (d/A/B/G/)|F2D>D D2F>F|\FAFA dABG|F2D>D D2B>A|GBcA FFGE|F2F>F F2:|!|:d>e|f2f>d g2g>f|e/d/e/f/ ecf2fe|dcBA GA/B/ e/d/c/B/|FAFA GABc|!d3e/d/ A3d/A/|F3A/F/ A3F/A/|FABG FD AG|F2F>F F2:|]


Tune 424	Setting 24494

